svgs/thin/square-w.svg

<svg xmlns="http://www.w3.org/2000/svg" viewBox="0 0 448 512"><!--! Font Awesome Pro 6.0.0-alpha3 by @fontawesome - https://fontawesome.com License - https://fontawesome.com/license (Commercial License) --><path d="M384 32H64C28.65 32 0 60.65 0 96v320c0 35.35 28.65 64 64 64h320c35.35 0 64-28.65 64-64V96C448 60.65 419.3 32 384 32zM432 416c0 26.47-21.53 48-48 48H64c-26.47 0-48-21.53-48-48V96c0-26.47 21.53-48 48-48h320c26.47 0 48 21.53 48 48V416zM362.3 128.3c-4.141-1.266-8.688 1.125-9.953 5.359l-63.89 212.1l-56.72-212.7c-1.875-7-13.59-7-15.47 0l-56.72 212.7l-63.89-212.1C94.39 129.5 89.91 127 85.7 128.3C81.47 129.6 79.06 134.1 80.34 138.3l72 240C153.4 381.7 156.7 384.6 160.1 384c3.578-.0625 6.688-2.484 7.609-5.938L224 167l56.27 211C281.2 381.5 284.4 383.9 287.9 384c3.531 0 6.703-2.312 7.719-5.703l72-240C368.9 134.1 366.5 129.6 362.3 128.3z"/></svg>

<svg xmlns="http://www.w3.org/2000/svg" viewBox="0 0 448 512"><!-- Font Awesome Pro 6.0.0-alpha2 by @fontawesome - https://fontawesome.com License - https://fontawesome.com/license (Commercial License) --><path d="M384 32H64C28.654 32 0 60.654 0 96V416C0 451.346 28.654 480 64 480H384C419.346 480 448 451.346 448 416V96C448 60.654 419.346 32 384 32ZM432 416C432 442.467 410.467 464 384 464H64C37.533 464 16 442.467 16 416V96C16 69.533 37.533 48 64 48H384C410.467 48 432 69.533 432 96V416ZM362.297 128.344C358.156 127.078 353.609 129.469 352.344 133.703L288.453 346.656L231.734 133.938C229.859 126.938 218.141 126.938 216.266 133.938L159.547 346.656L95.656 133.703C94.391 129.469 89.906 127.047 85.703 128.344C81.469 129.609 79.062 134.062 80.344 138.297L152.344 378.297C153.375 381.734 156.656 384.562 160.125 384C163.703 383.938 166.812 381.516 167.734 378.062L224 167.047L280.266 378.062C281.188 381.516 284.297 383.938 287.875 384H288C291.531 384 294.641 381.688 295.656 378.297L367.656 138.297C368.938 134.062 366.531 129.609 362.297 128.344Z"/></svg>
